X:NEW 15-27
C:David Linton <djl@colourcountry.net>
M:6/8
K:G
P:A
D| "G"GBd BGd BGB def |1,3 g2G BAG "D"FGA FED :|2,4 "C"g2E "D"FGA "G"BGD G2 :|
P:B
F| "Em"EGB GEB GEG Bcd |1,3 "D"DFA FDA d2c "Bm"BAF :|2,4 "C"edB "G"dBG "D"FGA "G"G2 :|
P:C
"D"AFD FAF DAF DFA |1,3 "C"cBA "G"B2G "Em"EFG "D"AFD :|2,4 "C"cBA "G"B2G "D"FGA "G"G2 :|
P:D
"C"e2e e2f "G"gdB GdB |1,3 "D"A2A ABc DEF "G"GBd :|2,4 "D"ABc DEF AGF "G"G2 :|

